icons/soundcloud.svg

<svg width="32" height="32" viewBox="0 0 32 32" fill="none" xmlns="http://www.w3.org/2000/svg">
<path d="M3.36667 28.6333C0.913335 26.18 0 22.18 0 16C0 9.82 0.913335 5.82 3.36667 3.36667C5.82 0.913333 9.82 0 16 0C22.18 0 26.18 0.913333 28.6333 3.36667C31.0867 5.82 32 9.82 32 16C32 22.18 31.0867 26.18 28.6333 28.6333C26.18 31.0867 22.18 32 16 32C9.82 32 5.82 31.0867 3.36667 28.6333Z" fill="#FF5500"/>
<path fill-rule="evenodd" clip-rule="evenodd" d="M28.748 18.3174C28.6411 20.228 27.0465 21.7141 25.1334 21.6876H16.4449C16.0469 21.6835 15.7257 21.3607 15.7237 20.9632V11.608C15.7112 11.2795 15.9016 10.977 16.2036 10.8462C16.2036 10.8462 17.0027 10.2921 18.6861 10.2921C19.7145 10.291 20.7238 10.5681 21.6075 11.0948C23.0012 11.9147 23.9876 13.2814 24.3275 14.862C24.6274 14.7774 24.9377 14.7354 25.2491 14.7364C26.1935 14.7307 27.0989 15.1085 27.759 15.7841C28.419 16.4592 28.776 17.3735 28.7485 18.3174H28.748ZM14.6392 12.1995C14.9012 15.3726 15.0916 18.2665 14.6392 21.4292C14.6236 21.5719 14.5027 21.6804 14.359 21.6804C14.2147 21.6804 14.0943 21.5719 14.0782 21.4292C13.6564 18.2935 13.8401 15.3451 14.0782 12.1995C14.0663 12.0921 14.1172 11.9868 14.209 11.9297C14.3003 11.8726 14.4166 11.8726 14.5089 11.9297C14.6002 11.9868 14.6511 12.0921 14.6392 12.1995ZM12.8811 21.4323C12.8593 21.5771 12.7348 21.6835 12.589 21.6835C12.4427 21.6835 12.3181 21.5771 12.2963 21.4323C11.9819 18.7268 11.9819 15.9937 12.2963 13.2882C12.3124 13.1377 12.4396 13.0235 12.5906 13.0235C12.7416 13.0235 12.8682 13.1377 12.8848 13.2882C13.234 15.9917 13.2324 18.7289 12.8811 21.4323ZM11.1195 13.0127C11.4049 15.9201 11.5346 18.5249 11.1164 21.4256C11.1164 21.5813 10.9898 21.7079 10.8341 21.7079C10.6784 21.7079 10.5518 21.5813 10.5518 21.4256C10.1471 18.5623 10.283 15.8827 10.5518 13.0127C10.5674 12.8674 10.6898 12.7584 10.8356 12.7584C10.9815 12.7584 11.1039 12.8674 11.1195 13.0127ZM9.35523 21.436C9.33862 21.5823 9.21512 21.6933 9.06724 21.6933C8.91987 21.6933 8.79585 21.5823 8.78029 21.436C8.45546 18.9115 8.45546 16.3559 8.78029 13.832C8.78029 13.6706 8.91105 13.5399 9.07243 13.5399C9.2338 13.5399 9.36508 13.6706 9.36508 13.832C9.71015 16.3549 9.70704 18.9136 9.35523 21.436ZM7.59305 15.7332C8.03878 17.7051 7.83797 19.4465 7.57644 21.4562C7.55517 21.5901 7.43945 21.6887 7.30402 21.6887C7.16911 21.6887 7.0534 21.5901 7.03212 21.4562C6.79395 19.474 6.59676 17.6916 7.01499 15.7327C7.01499 15.5734 7.14472 15.4437 7.30402 15.4437C7.46384 15.4437 7.59305 15.5734 7.59305 15.7332ZM5.83502 15.4338C6.24339 17.4539 6.11056 19.1642 5.82464 21.191C5.79091 21.4905 5.27772 21.4936 5.25022 21.191C4.99181 19.1948 4.86935 17.4332 5.23985 15.4338C5.25645 15.2818 5.38514 15.1666 5.53769 15.1666C5.69077 15.1666 5.81893 15.2818 5.83502 15.4338ZM4.06039 16.413C4.48848 17.7528 4.34215 18.8415 4.04327 20.215C4.0277 20.3561 3.90835 20.463 3.76617 20.463C3.62399 20.463 3.50465 20.3561 3.48856 20.215C3.23015 18.8684 3.12534 17.7564 3.46521 16.413C3.48078 16.261 3.60947 16.1458 3.76254 16.1458C3.91562 16.1458 4.0443 16.261 4.06039 16.413Z" fill="white"/>
</svg>

<svg xmlns="http://www.w3.org/2000/svg" width="32" height="32" fill="none" viewBox="0 0 32 32">
  <path fill="#F50" d="M3.367 28.633C.913 26.18 0 22.18 0 16 0 9.82.913 5.82 3.367 3.367 5.82.913 9.82 0 16 0c6.18 0 10.18.913 12.633 3.367C31.087 5.82 32 9.82 32 16c0 6.18-.913 10.18-3.367 12.633C26.18 31.087 22.18 32 16 32c-6.18 0-10.18-.913-12.633-3.367Z"/>
  <path fill="#fff" fill-rule="evenodd" d="M28.748 18.317a3.57 3.57 0 0 1-3.615 3.37h-8.688a.729.729 0 0 1-.721-.724v-9.355a.797.797 0 0 1 .48-.762s.799-.554 2.482-.554a5.695 5.695 0 0 1 2.922.803 5.781 5.781 0 0 1 2.72 3.767c.3-.085.61-.127.921-.126a3.478 3.478 0 0 1 3.5 3.581h-.001ZM14.639 12.2c.262 3.173.453 6.067 0 9.23a.282.282 0 0 1-.56 0c-.423-3.137-.239-6.085 0-9.23a.282.282 0 1 1 .56 0Zm-1.758 9.232a.295.295 0 0 1-.585 0 35.28 35.28 0 0 1 0-8.144.296.296 0 0 1 .589 0c.349 2.704.347 5.44-.004 8.144Zm-1.761-8.42c.285 2.908.415 5.513-.004 8.413a.283.283 0 0 1-.564 0c-.405-2.863-.269-5.542 0-8.412a.285.285 0 0 1 .284-.255c.146 0 .268.11.284.255Zm-1.765 8.424a.29.29 0 0 1-.575 0 29.789 29.789 0 0 1 0-7.604.292.292 0 0 1 .585 0 27.788 27.788 0 0 1-.01 7.604Zm-1.762-5.703c.446 1.972.245 3.713-.017 5.723a.276.276 0 0 1-.544 0c-.238-1.982-.435-3.764-.017-5.723a.29.29 0 0 1 .578 0Zm-1.758-.3c.408 2.02.276 3.731-.01 5.758-.034.3-.547.303-.575 0-.258-1.996-.38-3.758-.01-5.757a.3.3 0 0 1 .595 0Zm-1.775.98c.428 1.34.282 2.428-.017 3.802a.279.279 0 0 1-.554 0c-.259-1.347-.364-2.459-.024-3.802a.3.3 0 0 1 .595 0Z" clip-rule="evenodd"/>
</svg>
